.local/share/icons/Gruvbox-Plus-Dark/panel/22/weather-none-available.svg

<svg xmlns="http://www.w3.org/2000/svg" width="22" height="22" version="1.1">
 <defs>
  <style id="current-color-scheme" type="text/css">
   .ColorScheme-Text { color:#ebdbb2; } .ColorScheme-Highlight { color:#458588; }
  </style>
 </defs>
 <g transform="translate(-105.00001,-705.28997)">
  <path style="fill:currentColor;opacity:0.3" class="ColorScheme-Text" d="M 11,4 C 8.92893,4 7.16529,5.26792 6.40625,7.0625 4.47842,7.3491 3,8.99242 3,11 c 0,2.20914 1.79086,4 4,4 l 1,0 0,-1 c 5.11e-5,-0.265199 0.1054326,-0.519519 0.2929688,-0.707031 L 10,11.585938 10,11 8,11 C 7.4477381,10.999945 7.0000552,10.552262 7,10 L 7,8 C 7.0000552,7.4477381 7.4477381,7.0000552 8,7 l 5,0 c 0.552262,5.52e-5 0.999945,0.4477381 1,1 l 0,2 0,2 c 4.67e-4,0.265876 -0.104954,0.520994 -0.292969,0.708984 L 12,14.416016 12,15 l 1,0 2.5,0 C 17.433,15 19,13.433 19,11.5 19,9.70346 17.64921,8.2313 15.90625,8.03125 15.45168,5.73786 13.42687,4 11,4 Z" transform="translate(105.00001,705.28997)"/>
  <path style="fill:currentColor" class="ColorScheme-Highlight" d="m 113.00001,713.28997 0,2 3,0 0,2 -2,2 0,2 2,0 0,-2 2,-2 0,-2 0,-2 z m 1,9 0,2 2,0 0,-2 z"/>
 </g>
</svg>

<svg width="22" height="22" version="1.1" xmlns="http://www.w3.org/2000/svg">
  <defs>
    <style id="current-color-scheme" type="text/css">.ColorScheme-Text { color:#ebdbb2; } .ColorScheme-Highlight { color:#458588; } .ColorScheme-NeutralText { color:#fe8019; } .ColorScheme-PositiveText { color:#689d6a; } .ColorScheme-NegativeText { color:#fb4934; }</style>
  </defs>
  <path class="ColorScheme-Text" d="m11 4c-2.071 0-3.835 1.268-4.594 3.062-1.928 0.2866-3.406 1.93-3.406 3.938 0 2.209 1.791 4 4 4h1v-1c5.11e-5 -0.2652 0.1054-0.5195 0.293-0.707l1.707-1.707v-0.5859h-2c-0.5523-5.5e-5 -0.9999-0.4477-1-1v-2c5.52e-5 -0.5523 0.4477-0.9999 1-1h5c0.5523 5.52e-5 0.9999 0.4477 1 1v4c4.67e-4 0.2659-0.105 0.521-0.293 0.709l-1.707 1.707v0.584h3.5c1.933 0 3.5-1.567 3.5-3.5 0-1.797-1.351-3.269-3.094-3.469-0.4546-2.293-2.479-4.031-4.906-4.031z" fill="currentColor" opacity=".3"/>
  <path class="ColorScheme-Highlight" d="m8 8v2h3v2l-2 2v2h2v-2l2-2v-4zm1 9v2h2v-2z" fill="currentColor"/>
</svg>
